X:1
T: Miss Edwina Angus
C:
R:Jig
Q:180
K:Em
M:6/8
L:1/16
|:B2|E4B2 e4g2|f2e2^d2 e4c2|B4A2 G4F2|E6E4G2|
F2G2A2 B,4A2|G2A2B2 E4e2|^d2e2f2 F2^A2f2|B6B4B2|
c4A2 F2A2e2|d6B4g2|e6c4a2|f2e2d2 c2B2A2|
G4B2 e4g2|f2e2^d2 e2g2c'2|b2c'2b2 a2g2f2|e6E4:|
